fs/text_bullet_list_rtl_16_regular.svg

<svg viewBox="0 0 16 16" fill="none" xmlns="http://www.w3.org/2000/svg" height="1em" width="1em">
  <path d="M14 4.5C13.4477 4.5 13 4.05228 13 3.5C13 2.94772 13.4477 2.5 14 2.5C14.5523 2.5 15 2.94772 15 3.5C15 4.05228 14.5523 4.5 14 4.5ZM14 9C13.4477 9 13 8.55228 13 8C13 7.44772 13.4477 7 14 7C14.5523 7 15 7.44772 15 8C15 8.55228 14.5523 9 14 9ZM13 12.5C13 13.0523 13.4477 13.5 14 13.5C14.5523 13.5 15 13.0523 15 12.5C15 11.9477 14.5523 11.5 14 11.5C13.4477 11.5 13 11.9477 13 12.5ZM10.5 3C10.7761 3 11 3.22386 11 3.5C11 3.77614 10.7761 4 10.5 4H1.5C1.22386 4 1 3.77614 1 3.5C1 3.22386 1.22386 3 1.5 3H10.5ZM11 8C11 7.72386 10.7761 7.5 10.5 7.5H1.5C1.22386 7.5 1 7.72386 1 8C1 8.27614 1.22386 8.5 1.5 8.5H10.5C10.7761 8.5 11 8.27614 11 8ZM10.5 12C10.7761 12 11 12.2239 11 12.5C11 12.7761 10.7761 13 10.5 13H1.5C1.22386 13 1 12.7761 1 12.5C1 12.2239 1.22386 12 1.5 12H10.5Z" fill="#212121"/>
</svg>

<svg viewBox="0 0 16 16" fill="none" xmlns="http://www.w3.org/2000/svg" height="1em" width="1em">
  <path d="M14 4.5a1 1 0 1 1 0-2 1 1 0 0 1 0 2ZM14 9a1 1 0 1 1 0-2 1 1 0 0 1 0 2Zm-1 3.5a1 1 0 1 0 2 0 1 1 0 0 0-2 0ZM10.5 3a.5.5 0 0 1 0 1h-9a.5.5 0 0 1 0-1h9Zm.5 5a.5.5 0 0 0-.5-.5h-9a.5.5 0 0 0 0 1h9A.5.5 0 0 0 11 8Zm-.5 4a.5.5 0 0 1 0 1h-9a.5.5 0 0 1 0-1h9Z" fill="#212121"/>
</svg>
